X: 29014
T: Neal Slessor Thompson
R: hornpipe
M: 4/4
K: Cmajor
(3EcG ed cBAG|^ABG^F =F3A|^AB^FG (3B,CD (3G,A,B,|CG,AG EA (3G^F=F|
(3EcG ed ^cd e2|f2e2 de^cd|eG (3GFG A2B2|cAGE C>D (3G^F=F|
(3EcG ed cBAG|^AB ^FG (3B,CD G,A|^AB ^FG (3B,CD (3G,A,B,|CG,AG EA (3G^F=F|
(3EcG ed ^cdeA|f2e2 de^cd|eG (3G^FG A2B2|cAGE C2 G^F|
FA e2 ed- dc/A/|FAeF (3Ace dc|CG d^c= cA a^g|g2-gA (3ged (3cAG|
FA e2 ed-dc/A/|FAeF (3Ace dc|CGd^c =cAa^g|g4g2^g2|
ad (3d^cd dfa^g|gc (3cBc ce g^f|faAc e2d2|cAGE C2 (3G^F=F|

